client/public/game_modes/fireball/frame16.svg

<svg xmlns="http://www.w3.org/2000/svg" width="437" height="483" fill="none"><path fill="#FF5A00" d="M166.273 252.571v-21.142h105.454v21.142h21.091v42.286h21.091v63.429H335v42.285h-21.091v42.286h-42.182V464H166.273v-21.143h-42.182v-42.286H103v-42.285h21.091v-63.429h21.091v-42.286h21.091ZM313.909 62.286V41.143H335v21.143h-21.091ZM103 168v-21.143h21.091V168H103Zm42.182-63.429V83.429h21.091v21.142h-21.091Zm84.363-21.142V62.286h21.091v21.143h-21.091Zm42.182 42.285v-21.143h21.091v21.143h-21.091Zm42.182 21.143v-21.143H335v21.143h-21.091Z"/><path fill="#FF9D00" d="M166.273 316h-21.091v21.143h-21.091v42.286h21.091v42.285h42.182v-42.285h-21.091v-42.286h42.182v-42.286h63.272v-21.143h-21.091v-21.143h-21.091v-21.142h-21.09v42.285h-21.091v-21.143h-21.091V316Zm147.636 63.429V316h-42.182v21.143h21.091v21.143h-21.091v42.285h-42.182v42.286h21.091v-21.143h42.182v-42.285h21.091Z"/><path fill="#FFD600" d="M229.545 442.857h-42.181v-63.428h-21.091v-42.286h42.182v-42.286h84.363V316h-21.091v21.143h21.091v21.143h-21.091v42.285h-42.182v42.286Z"/><path fill="#FFF1CD" d="M208.455 379.429v-21.143h21.09V316h21.091v63.429h-42.181Z"/><path fill="#FF7A00" d="M166.273 273.714h-21.091v21.143h-21.091v42.286h21.091V316h21.091v-42.286Zm-42.182 148v-42.285h21.091v42.285h21.091v21.143h-21.091v-21.143h-21.091Zm63.273-169.143v-21.142h21.091v42.285h-21.091v-21.143Zm63.272 190.286v-21.143h42.182v-42.285h21.091v42.285h-21.091v21.143h-42.182Z"/><path fill="#FFBF00" d="M208.455 316v42.286h-21.091v21.143h-21.091v-42.286h21.091V316h21.091Zm21.09 105.714v21.143h-42.181v-42.286h21.091v21.143h21.09Zm63.273-126.857V316h-21.091v-21.143h21.091Zm-63.273 0V316h-21.09v-42.286h21.09v21.143Z"/></svg>

<svg width="437" height="483" viewBox="0 0 437 483" fill="none" xmlns="http://www.w3.org/2000/svg">
<path d="M166.273 252.571V231.429H271.727V252.571H292.818V294.857H313.909V358.286H335V400.571H313.909V442.857H271.727V464H187.364H166.273V442.857H124.091V400.571H103V358.286H124.091V294.857H145.182V252.571H166.273Z" fill="#FF5A00"/>
<path d="M313.909 62.2857V41.1429H335V62.2857H313.909Z" fill="#FF5A00"/>
<path d="M103 168V146.857H124.091V168H103Z" fill="#FF5A00"/>
<path d="M145.182 104.571V83.4286H166.273V104.571H145.182Z" fill="#FF5A00"/>
<path d="M229.545 83.4286V62.2857H250.636V83.4286H229.545Z" fill="#FF5A00"/>
<path d="M271.727 125.714V104.571H292.818V125.714H271.727Z" fill="#FF5A00"/>
<path d="M313.909 146.857V125.714H335V146.857H313.909Z" fill="#FF5A00"/>
<path d="M166.273 316H145.182V337.143H124.091V379.429H145.182V400.571V421.714H187.364V379.429H166.273V358.286V337.143H187.364H208.455V316V294.857H271.727V273.714H250.636V252.571H229.545V231.429H208.455V273.714H187.364V252.571H166.273V316Z" fill="#FF9D00"/>
<path d="M313.909 379.429V316H292.818H271.727V337.143H292.818V358.286H271.727V400.571H229.545V421.714V442.857H250.636V421.714H292.818V400.571V379.429H313.909Z" fill="#FF9D00"/>
<path d="M229.545 442.857H187.364V379.429H166.273V337.143H208.455V294.857H271.727H292.818V316H271.727V337.143H292.818V358.286H271.727V400.571H229.545V442.857Z" fill="#FFD600"/>
<path d="M208.455 379.429V358.286H229.545V316H250.636V379.429H208.455Z" fill="#FFF1CD"/>
<path d="M166.273 273.714H145.182V294.857H124.091V337.143H145.182V316H166.273V273.714Z" fill="#FF7A00"/>
<path d="M124.091 421.714V379.429H145.182V421.714H166.273V442.857H145.182V421.714H124.091Z" fill="#FF7A00"/>
<path d="M187.364 252.571V231.429H208.455V252.571V273.714H187.364V252.571Z" fill="#FF7A00"/>
<path d="M250.636 442.857V421.714H292.818V379.429H313.909V421.714H292.818V442.857H250.636Z" fill="#FF7A00"/>
<path d="M208.455 316V358.286H187.364V379.429H166.273V337.143H187.364V316H208.455Z" fill="#FFBF00"/>
<path d="M229.545 421.714V442.857H208.455H187.364V400.571H208.455V421.714H229.545Z" fill="#FFBF00"/>
<path d="M292.818 294.857V316H271.727V294.857H292.818Z" fill="#FFBF00"/>
<path d="M229.545 294.857V316H208.455V273.714H229.545V294.857Z" fill="#FFBF00"/>
</svg>
